X:299
T:John the Badengond. RH.299
R:Strathspey
S:Rev.R.Harrison’s MS,c1815,Cumbria
O:England
A:Temple Sowerby,Cumbria
Z:vmp.Simon Wilson. Review PJH, 2008.
M:C
L:1/8
Q:2/4=75
K:D
d|B>AFA B>AFc|d>ed>B A3d|\
B>Bd>e f>ed>f|B>Bd>e f3a|!
b>fa>e f>de>c|d>AB>F d3e|\
f>de>B d>Ad>F|E>E F>A B3:|!
|:a|b>af>a b>af>b|a>fe>f a3d’|\
b>ge>g b>af>d|B/B/B d>e f3a|!
b>fa>e f>de>B|d>Ad>F d3e|\
f>de>B d>Ad>F|E>E F>A B3:|

